source/img/icon-menu-burger.svg

<svg fill="currentColor" version="1.0" id="Layer_1" xmlns="http://www.w3.org/2000/svg" xmlns:xlink="http://www.w3.org/1999/xlink" x="0px" y="0px" width="49.945px" height="24.007px" viewBox="0 0 49.945 24.007" enable-background="new 0 0 49.945 24.007" xml:space="preserve">
  <g id="miu">
    <g id="editor_list_view_hambuger_menu_glyph">
      <g>
        <path id="path-1" d="M1.137,0C0.51,0,0,0.428,0,1.01v1.981c0,0.558,0.494,1.01,1.139,1.01h47.671 c0.628,0,1.138-0.428,1.138-1.01V1.01c0-0.558-0.494-1.01-1.138-1.01H1.137z M1.137,10.003C0.51,10.003,0,10.431,0,11.013v1.98 c0,0.557,0.494,1.01,1.139,1.01h47.671c0.628,0,1.138-0.428,1.138-1.01v-1.98c0-0.558-0.494-1.01-1.138-1.01H1.137z M1.137,20.005C0.51,20.005,0,20.434,0,21.016v1.981c0,0.557,0.494,1.01,1.139,1.01h47.671c0.628,0,1.138-0.428,1.138-1.01 v-1.981c0-0.558-0.494-1.011-1.138-1.011H1.137z"/>
      </g>
      <g>
        <path id="path-1_1_" d="M1.137,0C0.51,0,0,0.428,0,1.01v1.981c0,0.558,0.494,1.01,1.139,1.01h47.671 c0.628,0,1.138-0.428,1.138-1.01V1.01c0-0.558-0.494-1.01-1.138-1.01H1.137z M1.137,10.003C0.51,10.003,0,10.431,0,11.013v1.98 c0,0.557,0.494,1.01,1.139,1.01h47.671c0.628,0,1.138-0.428,1.138-1.01v-1.98c0-0.558-0.494-1.01-1.138-1.01H1.137z M1.137,20.005C0.51,20.005,0,20.434,0,21.016v1.981c0,0.557,0.494,1.01,1.139,1.01h47.671c0.628,0,1.138-0.428,1.138-1.01 v-1.981c0-0.558-0.494-1.011-1.138-1.011H1.137z"/>
      </g>
    </g>
  </g>
</svg>

<svg fill="currentColor" version="1.0" xmlns="http://www.w3.org/2000/svg" width="49.95" height="24.01"><path d="M1.14 0C.5 0 0 .43 0 1.01v1.98C0 3.55.5 4 1.14 4H48.8c.63 0 1.14-.43 1.14-1V1c0-.56-.5-1.01-1.14-1.01H1.14zm0 10C.5 10 0 10.43 0 11.01V13C0 13.55.5 14 1.14 14H48.8c.63 0 1.14-.42 1.14-1V11c0-.55-.5-1-1.14-1H1.14zm0 10C.5 20 0 20.43 0 21.02V23c0 .55.5 1 1.14 1H48.8c.63 0 1.14-.42 1.14-1v-1.98c0-.56-.5-1.02-1.14-1.02H1.14z"/><path d="M1.14 0C.5 0 0 .43 0 1.01v1.98C0 3.55.5 4 1.14 4H48.8c.63 0 1.14-.43 1.14-1V1c0-.56-.5-1.01-1.14-1.01H1.14zm0 10C.5 10 0 10.43 0 11.01V13C0 13.55.5 14 1.14 14H48.8c.63 0 1.14-.42 1.14-1V11c0-.55-.5-1-1.14-1H1.14zm0 10C.5 20 0 20.43 0 21.02V23c0 .55.5 1 1.14 1H48.8c.63 0 1.14-.42 1.14-1v-1.98c0-.56-.5-1.02-1.14-1.02H1.14z"/></svg>
